rospo-icon-theme-classic-common/22x22/apps/subsurface-icon.svg

<svg height="22" width="22" xmlns="http://www.w3.org/2000/svg"><path d="m21 2.4109688c-1.277459.660141-2.81011 1.5272845-4.482422 1.5390625-4.226597.029768-9.249776-1.4225979-12.7216795-1.5-1.1216004-.0250049-2.0772509.3632147-2.7958985.8515625v16.6984062c0 .554.446 1 1 1h18c .554 0 1-.446 1-1z" fill="#2c5a98"/><path d="m2 1.5001316c-.554 0-1 .446-1 1v1.8517813c.7186476-.4883478 1.6742981-.8765673 2.7958984-.8515625 3.4719036.077402 8.4950826 2.0290799 12.7216796 1.9993125 1.672312-.011778 3.204963-.8789214 4.482422-1.5390625v-1.4604688c0-.554-.446-1-1-1z" opacity=".2"/><path d="m2 1c-.554 0-1 .446-1 1v1.8517813c.7186476-.4883478 1.6742981-.8765673 2.7958984-.8515625 3.4719036.077402 8.4950826 2.0290799 12.7216796 1.9993125 1.672312-.011778 3.204963-.8789214 4.482422-1.5390625v-1.4604688c0-.554-.446-1-1-1z" fill="#28bae4"/><path d="m1 2.5v-.5c0-.554.446-1 1-1h18c .554 0 1 .446 1 1v .5c0-.554-.446-1-1-1h-18c-.554 0-1 .446-1 1z" fill="#fff" opacity=".2"/><path d="m1 20v .5c0 .554.446 1 1 1h18c .554 0 1-.446 1-1v-.5c0 .554-.446 1-1 1h-18c-.554 0-1-.446-1-1z" opacity=".2"/><path d="m9.988281 5.9996965-.15039.00586.37207.2685545.392578.3535155-.0459.1962895c-.0255.2183455-.05455.381161-.06348.4492185l-.01563.123047-.121094-.085937-.220704-.085937.08691.1435545.08691.142578h-.22168-.221679v-.140625-.139648l-.211914.083007-.212892.083008.07324.1191405.07226.1191405-.286133.2753905-.285156.204102.105469.118164.105469.118164-.186524-.109375-.1874995-.109375.2451165-.274414.244142-.274414-.128907-.012695c-.07076-.00662-.259511-.027245-.4199215-.0459l-.2919665-.0341805-.01953.2617185-.018555.261719-.345703.326172-.3447265.325195-.321289 1.2998045c-.176532.714724-.3498475 1.333659-.3857425 1.49707l-.065429.296876c.321426.135029.6786985.198015.9840115.215819.080249-.05036.1903595-.269713.2441405-.487305s.1545381-.25795.1884765-.294921h.091797l.012695.46875c.00705.258094.119199.34644.2490235.806943.129829.460504.235352.992644.235352 1.182617v.345704l-.144532.09082-.144531.09082.230832.132813.081055.132812-.2041015-.08008-.203125-.0791-.322266.674805-.321289.673828-.6972655.454102-.4482425.455078.112305.503906.111328.504883-.023435.804688-.02246.805664.102539.168945.103513.169924h.258789.508789l.3183595-.166992.198242-.262696-.2666015-.253906c-.055498-.139986-.1324685-.662057-.1708985-1.15918l-.069336-.90332.388672-.674805.3896485-.674804.5947265-.586914.594727-.587891.08887-.762695.08887-.762696-.171875.09863-.170898.09766.162109-.178711.162109-.17871.335937.175781c.184359.09674.542723.332775.796875.525391l.461915.350586v.363281.362305l.352539.78125c.193514.429573.393408.961138.445313 1.18164.05188.220502.153127.476796.224608.569336l.129883.167969.399414-.116211c.219641-.06396.540251-.191866.711914-.285157.171664-.09329.894683-.344387 1.607422-.557617l1.295899-.387695.05957-.180664.058588-.180665h-.492188c-.270466 0-.690476.04047-.933593.08984l-.441407.08984.07617.124999.07617.125-.22168-.08594-.220702-.08594-.571289.232422c-.314243.12768-.691554.231445-.837891.231445h-.265625l-.22754-.577148-.227539-.577148-.09082-.787109-.0918-.788086-.561523-.764649c-.308898-.42066-.763923-.447019-1.011712-.669236l-.457031-.371094c.167094.0013.184186.01911.351201-.0049l-.103516-.122071-.03515-.180664.177734.03613.177734.03613-.03809-.236328-.03809-.236329.215821-.08398c.07699-.02999.14147-.147219.179684-.207995h-.177734-.212891v-.290668c0-.11912.04077-.216797.09082-.216797.05002 0 .324331.113956.426143.25293l.18457.152973c.201006-.151151.433468-.229266.664883-.320313l.09375-.663086c.0516-.364617-.01839-.72573.02848-.802734l.08594-.1396425-.212891-.21582c-.116637-.1184315-.292443-.243458-.391602-.277343l-.180664-.061523.183593-.2246095.03808-.1972655.01758-.445313c-.0381-.213498-.0914-.2579265-.189453-.3779295-.257129-.149322-.345402-.1821585-.625-.1552735l-.440429-.00586-.34961-.248047c-.149812-.1112345-.349795-.266871-.432612-.263671zm1.511719 2.3046875h.133789c.07354 0 .133789.068244.133789.1523435v.1533205l.131836-.083008.132813-.083008.102539.168945.103515.1689455-.164062-.102539-.04883.00295-.01953.301758v.5244145l-.238281.0088v.001l-.274414-.01172c-.0089-.05956.03041-.5677445.0049-.7861325z" opacity=".2"/><path d="m9.988281 5.4996965-.15039.00586.37207.2685545.392578.3535155-.0459.1962895c-.0255.2183455-.05455.381161-.06348.4492185l-.01563.123047-.121094-.085937-.220704-.085937.08691.1435545.08691.142578h-.22168-.221679v-.140625-.139648l-.211914.083007-.212892.083008.07324.1191405.07226.1191405-.286133.2753905-.285156.204102.105469.118164.105469.118164-.186524-.109375-.1874995-.109375.2451165-.274414.244142-.274414-.128907-.012695c-.07076-.00662-.259511-.027245-.4199215-.0459l-.2919665-.0341805-.01953.2617185-.018555.261719-.345703.326172-.3447265.325195-.321289 1.2998045c-.176532.714724-.3498475 1.333659-.3857425 1.49707l-.065429.296876c.321426.135029.6786985.198015.9840115.215819.080249-.05036.1903595-.269713.2441405-.487305s.1545381-.25795.1884765-.294921h.091797l.012695.46875c.00705.258094.119199.34644.2490235.806943.129829.460504.235352.992644.235352 1.182617v.345704l-.144532.09082-.144531.09082.230832.132813.081055.132812-.2041015-.08008-.203125-.0791-.322266.674805-.321289.673828-.6972655.454102-.4482425.455078.112305.503906.111328.504883-.023435.804688-.02246.805664.102539.168945.103513.169924h.258789.508789l.3183595-.166992.198242-.262696-.2666015-.253906c-.055498-.139986-.1324685-.662057-.1708985-1.15918l-.069336-.90332.388672-.674805.3896485-.674804.5947265-.586914.594727-.587891.08887-.762695.08887-.762696-.171875.09863-.170898.09766.162109-.178711.162109-.17871.335937.175781c.184359.09674.542723.332775.796875.525391l.461915.350586v.363281.362305l.352539.78125c.193514.429573.393408.961138.445313 1.18164.05188.220502.153127.476796.224608.569336l.129883.167969.399414-.116211c.219641-.06396.540251-.191866.711914-.285157.171664-.09329.894683-.344387 1.607422-.557617l1.295899-.387695.05957-.180664.058588-.180665h-.492188c-.270466 0-.690476.04047-.933593.08984l-.441407.08984.07617.124999.07617.125-.22168-.08594-.220702-.08594-.571289.232422c-.314243.12768-.691554.231445-.837891.231445h-.265625l-.22754-.577148-.227539-.577148-.09082-.787109-.0918-.788086-.561523-.764649c-.308898-.42066-.763923-.447019-1.011712-.669236l-.457031-.371094c.167094.0013.184186.01911.351201-.0049l-.103516-.122071-.03515-.180664.177734.03613.177734.03613-.03809-.236328-.03809-.236329.215821-.08398c.07699-.02999.14147-.147219.179684-.207995h-.177734-.212891v-.290668c0-.11912.04077-.216797.09082-.216797.05002 0 .324331.113956.426143.25293l.18457.152973c.201006-.151151.433468-.229266.664883-.320313l.09375-.6630855c.0516-.364617-.01839-.7257305.02848-.8027345l.08594-.1396425-.212891-.21582c-.116637-.1184315-.292443-.243458-.391602-.277343l-.180664-.061523.183593-.2246095.03808-.1972655.01758-.445313c-.0381-.213498-.0914-.2579265-.189453-.3779295-.257129-.149322-.345402-.1821585-.625-.1552735l-.440429-.00586-.34961-.248047c-.149812-.1112345-.349795-.266871-.432612-.263671zm1.511719 2.3046875h.133789c.07354 0 .133789.068244.133789.1523435v.1533205l.131836-.083008.132813-.083008.102539.168945.103515.1689455-.164062-.102539-.04883.00295-.01953.301758v.5244145l-.238281.0088v.001l-.274414-.01172c-.0089-.05956.03041-.5677445.0049-.7861325z" fill="#fff"/></svg>

<svg xmlns="http://www.w3.org/2000/svg" width="22" height="22" version="1">
 <path style="fill:#2c5a98" d="m 21,2.4109688 c -1.277459,0.660141 -2.81011,1.5272845 -4.482422,1.5390625 -4.226597,0.029768 -9.249776,-1.4225979 -12.7216795,-1.5 C 2.6742981,2.4250264 1.7186476,2.813246 1,3.3015938 L 1,20 c 0,0.554 0.446,1 1,1 l 18,0 c 0.554,0 1,-0.446 1,-1 z"/>
 <path style="opacity:0.2" d="m 2,1.5001316 c -0.554,0 -1,0.446 -1,1 L 1,4.3519129 C 1.7186476,3.8635651 2.6742981,3.4753456 3.7958984,3.5003504 7.267802,3.5777524 12.290981,5.5294303 16.517578,5.4996629 18.18989,5.4878849 19.722541,4.6207415 21,3.9606004 l 0,-1.4604688 c 0,-0.554 -0.446,-1 -1,-1 z"/>
 <path d="M 2,1 C 1.446,1 1,1.446 1,2 L 1,3.8517813 C 1.7186476,3.3634335 2.6742981,2.975214 3.7958984,3.0002188 7.267802,3.0776208 12.290981,5.0292987 16.517578,4.9995313 18.18989,4.9877533 19.722541,4.1206099 21,3.4604688 L 21,2 C 21,1.446 20.554,1 20,1 Z" style="fill:#28bae4"/>
 <path style="opacity:0.2;fill:#ffffff" d="M 1,2.5 1,2 C 1,1.446 1.446,1 2,1 l 18,0 c 0.554,0 1,0.446 1,1 l 0,0.5 c 0,-0.554 -0.446,-1 -1,-1 l -18,0 c -0.554,0 -1,0.446 -1,1 z"/>
 <path style="opacity:0.2" d="m 1,20 0,0.5 c 0,0.554 0.446,1 1,1 l 18,0 c 0.554,0 1,-0.446 1,-1 L 21,20 c 0,0.554 -0.446,1 -1,1 L 2,21 C 1.446,21 1,20.554 1,20 Z"/>
 <path d="m 9.988281,5.9996965 -0.15039,0.00586 0.37207,0.2685545 0.392578,0.3535155 -0.0459,0.1962895 c -0.0255,0.2183455 -0.05455,0.381161 -0.06348,0.4492185 l -0.01563,0.123047 -0.121094,-0.085937 -0.220704,-0.085937 0.08691,0.1435545 0.08691,0.142578 -0.22168,0 -0.221679,0 0,-0.140625 0,-0.139648 L 9.654278,7.313174 9.441386,7.396182 9.514626,7.5153225 9.586886,7.634463 9.300753,7.9098535 9.015597,8.1139555 9.121066,8.2321195 9.226535,8.3502835 9.040011,8.2409085 8.8525115,8.1315335 9.097628,7.8571195 9.34177,7.5827055 9.212863,7.5700105 c -0.07076,-0.00662 -0.259511,-0.027245 -0.4199215,-0.0459 L 8.500975,7.48993 8.481445,7.7516485 8.46289,8.0133675 8.117187,8.3395395 7.7724605,8.6647345 7.4511715,9.964539 C 7.2746395,10.679263 7.101324,11.298198 7.065429,11.461609 L 7,11.758485 c 0.321426,0.135029 0.6786985,0.198015 0.9840115,0.215819 0.080249,-0.05036 0.1903595,-0.269713 0.2441405,-0.487305 0.053781,-0.217592 0.1545381,-0.25795 0.1884765,-0.294921 l 0.091797,0 0.012695,0.46875 c 0.00705,0.258094 0.119199,0.34644 0.2490235,0.806943 0.129829,0.460504 0.235352,0.992644 0.235352,1.182617 l 0,0.345704 -0.144532,0.09082 -0.144531,0.09082 0.230832,0.132813 0.081055,0.132812 -0.2041015,-0.08008 -0.203125,-0.0791 -0.322266,0.674805 -0.321289,0.673828 -0.6972655,0.454102 -0.4482425,0.455078 0.112305,0.503906 0.111328,0.504883 -0.023435,0.804688 -0.02246,0.805664 0.102539,0.168945 0.103513,0.169924 0.258789,0 0.508789,0 L 8.301758,19.333008 8.5,19.070312 8.2333985,18.816406 C 8.1779005,18.67642 8.10093,18.154349 8.0625,17.657226 l -0.069336,-0.90332 0.388672,-0.674805 0.3896485,-0.674804 0.5947265,-0.586914 0.594727,-0.587891 0.08887,-0.762695 0.08887,-0.762696 -0.171875,0.09863 -0.170898,0.09766 0.162109,-0.178711 0.162109,-0.17871 0.335937,0.175781 c 0.184359,0.09674 0.542723,0.332775 0.796875,0.525391 l 0.461915,0.350586 0,0.363281 0,0.362305 0.352539,0.78125 c 0.193514,0.429573 0.393408,0.961138 0.445313,1.18164 0.05188,0.220502 0.153127,0.476796 0.224608,0.569336 l 0.129883,0.167969 0.399414,-0.116211 c 0.219641,-0.06396 0.540251,-0.191866 0.711914,-0.285157 0.171664,-0.09329 0.894683,-0.344387 1.607422,-0.557617 l 1.295899,-0.387695 0.05957,-0.180664 L 17,15.3125 l -0.492188,0 c -0.270466,0 -0.690476,0.04047 -0.933593,0.08984 l -0.441407,0.08984 0.07617,0.124999 0.07617,0.125 -0.22168,-0.08594 -0.220702,-0.08594 -0.571289,0.232422 c -0.314243,0.12768 -0.691554,0.231445 -0.837891,0.231445 l -0.265625,0 -0.22754,-0.577148 -0.227539,-0.577148 -0.09082,-0.787109 -0.0918,-0.788086 -0.561523,-0.764649 C 11.659845,12.119366 11.20482,12.093007 10.957031,11.87079 L 10.5,11.499696 c 0.167094,0.0013 0.184186,0.01911 0.351201,-0.0049 l -0.103516,-0.122071 -0.03515,-0.180664 0.177734,0.03613 0.177734,0.03613 -0.03809,-0.236328 -0.03809,-0.236329 0.215821,-0.08398 c 0.07699,-0.02999 0.14147,-0.147219 0.179684,-0.207995 l -0.177734,0 -0.212891,0 0,-0.290668 c 0,-0.11912 0.04077,-0.216797 0.09082,-0.216797 0.05002,0 0.324331,0.113956 0.426143,0.25293 l 0.18457,0.152973 c 0.201006,-0.151151 0.433468,-0.229266 0.664883,-0.320313 l 0.09375,-0.663086 c 0.0516,-0.364617 -0.01839,-0.72573 0.02848,-0.802734 l 0.08594,-0.1396425 -0.212891,-0.21582 C 12.241761,8.1381 12.065955,8.0130735 11.966796,7.9791885 l -0.180664,-0.061523 0.183593,-0.2246095 0.03808,-0.1972655 0.01758,-0.445313 C 11.987285,6.8369795 11.933985,6.792551 11.835932,6.672548 11.578803,6.523226 11.49053,6.4903895 11.210932,6.5172745 l -0.440429,-0.00586 -0.34961,-0.248047 C 10.271081,6.152133 10.071098,5.9964965 9.988281,5.9996965 Z M 11.5,8.304384 l 0.133789,0 c 0.07354,0 0.133789,0.068244 0.133789,0.1523435 l 0,0.1533205 0.131836,-0.083008 0.132813,-0.083008 0.102539,0.168945 0.103515,0.1689455 -0.164062,-0.102539 -0.04883,0.00295 -0.01953,0.301758 0,0.5244145 -0.238281,0.0088 0,0.001 -0.274414,-0.01172 c -0.0089,-0.05956 0.03041,-0.5677445 0.0049,-0.7861325 z" style="opacity:0.2"/>
 <path style="fill:#ffffff" d="m 9.988281,5.4996965 -0.15039,0.00586 0.37207,0.2685545 0.392578,0.3535155 -0.0459,0.1962895 c -0.0255,0.2183455 -0.05455,0.381161 -0.06348,0.4492185 l -0.01563,0.123047 -0.121094,-0.085937 -0.220704,-0.085937 0.08691,0.1435545 0.08691,0.142578 -0.22168,0 -0.221679,0 0,-0.140625 0,-0.139648 L 9.654278,6.813174 9.441386,6.896182 9.514626,7.0153225 9.586886,7.134463 9.300753,7.4098535 9.015597,7.6139555 9.121066,7.7321195 9.226535,7.8502835 9.040011,7.7409085 8.8525115,7.6315335 9.097628,7.3571195 9.34177,7.0827055 9.212863,7.0700105 c -0.07076,-0.00662 -0.259511,-0.027245 -0.4199215,-0.0459 L 8.500975,6.98993 8.481445,7.2516485 8.46289,7.5133675 8.117187,7.8395395 7.7724605,8.1647345 7.4511715,9.464539 C 7.2746395,10.179263 7.101324,10.798198 7.065429,10.961609 L 7,11.258485 c 0.321426,0.135029 0.6786985,0.198015 0.9840115,0.215819 0.080249,-0.05036 0.1903595,-0.269713 0.2441405,-0.487305 0.053781,-0.217592 0.1545381,-0.25795 0.1884765,-0.294921 l 0.091797,0 0.012695,0.46875 c 0.00705,0.258094 0.119199,0.34644 0.2490235,0.806943 0.129829,0.460504 0.235352,0.992644 0.235352,1.182617 l 0,0.345704 -0.144532,0.09082 -0.144531,0.09082 0.230832,0.132813 0.081055,0.132812 -0.2041015,-0.08008 -0.203125,-0.0791 -0.322266,0.674805 -0.321289,0.673828 -0.6972655,0.454102 -0.4482425,0.455078 0.112305,0.503906 0.111328,0.504883 -0.023435,0.804688 -0.02246,0.805664 0.102539,0.168945 L 7.2158205,19 7.4746095,19 7.9833985,19 8.301758,18.833008 8.5,18.570312 8.2333985,18.316406 C 8.1779005,18.17642 8.10093,17.654349 8.0625,17.157226 l -0.069336,-0.90332 0.388672,-0.674805 0.3896485,-0.674804 0.5947265,-0.586914 0.594727,-0.587891 0.08887,-0.762695 0.08887,-0.762696 -0.171875,0.09863 -0.170898,0.09766 0.162109,-0.178711 0.162109,-0.17871 0.335937,0.175781 c 0.184359,0.09674 0.542723,0.332775 0.796875,0.525391 l 0.461915,0.350586 0,0.363281 0,0.362305 0.352539,0.78125 c 0.193514,0.429573 0.393408,0.961138 0.445313,1.18164 0.05188,0.220502 0.153127,0.476796 0.224608,0.569336 l 0.129883,0.167969 0.399414,-0.116211 c 0.219641,-0.06396 0.540251,-0.191866 0.711914,-0.285157 0.171664,-0.09329 0.894683,-0.344387 1.607422,-0.557617 l 1.295899,-0.387695 0.05957,-0.180664 L 17,14.8125 l -0.492188,0 c -0.270466,0 -0.690476,0.04047 -0.933593,0.08984 l -0.441407,0.08984 0.07617,0.124999 0.07617,0.125 -0.22168,-0.08594 -0.220702,-0.08594 -0.571289,0.232422 c -0.314243,0.12768 -0.691554,0.231445 -0.837891,0.231445 l -0.265625,0 -0.22754,-0.577148 -0.227539,-0.577148 -0.09082,-0.787109 -0.0918,-0.788086 -0.561523,-0.764649 C 11.659845,11.619366 11.20482,11.593007 10.957031,11.37079 L 10.5,10.999696 c 0.167094,0.0013 0.184186,0.01911 0.351201,-0.0049 l -0.103516,-0.122071 -0.03515,-0.180664 0.177734,0.03613 0.177734,0.03613 -0.03809,-0.236328 -0.03809,-0.236329 0.215821,-0.08398 c 0.07699,-0.02999 0.14147,-0.147219 0.179684,-0.207995 l -0.177734,0 -0.212891,0 0,-0.290668 c 0,-0.11912 0.04077,-0.216797 0.09082,-0.216797 0.05002,0 0.324331,0.113956 0.426143,0.25293 l 0.18457,0.152973 c 0.201006,-0.151151 0.433468,-0.229266 0.664883,-0.320313 l 0.09375,-0.6630855 c 0.0516,-0.364617 -0.01839,-0.7257305 0.02848,-0.8027345 l 0.08594,-0.1396425 -0.212891,-0.21582 C 12.241761,7.6381 12.065955,7.5130735 11.966796,7.4791885 l -0.180664,-0.061523 0.183593,-0.2246095 0.03808,-0.1972655 0.01758,-0.445313 C 11.987285,6.3369795 11.933985,6.292551 11.835932,6.172548 11.578803,6.023226 11.49053,5.9903895 11.210932,6.0172745 l -0.440429,-0.00586 -0.34961,-0.248047 C 10.271081,5.652133 10.071098,5.4964965 9.988281,5.4996965 Z M 11.5,7.804384 l 0.133789,0 c 0.07354,0 0.133789,0.068244 0.133789,0.1523435 l 0,0.1533205 0.131836,-0.083008 0.132813,-0.083008 0.102539,0.168945 0.103515,0.1689455 -0.164062,-0.102539 -0.04883,0.00295 -0.01953,0.301758 0,0.5244145 -0.238281,0.0088 0,0.001 -0.274414,-0.01172 c -0.0089,-0.05956 0.03041,-0.5677445 0.0049,-0.7861325 z"/>
</svg>
